packages/core/src/svgs/tokens/mono/DPS.svg

<svg width="24" height="24" viewBox="0 0 24 24" fill="none" xmlns="http://www.w3.org/2000/svg">
<path d="M2 14.744C2 13.8107 3.04103 12.185 3.55898 11.4928C3.39488 11.8568 3.06155 12.544 3.06155 13.2107C3.06155 16.103 8.16411 15.8209 10.7179 15.3132C9.86151 15.7491 7.62053 16.621 5.52309 16.621C2.90769 16.621 2 15.9132 2 14.744ZM22 9.26706C22 10.2005 20.8975 11.826 20.3487 12.5184C20.5231 12.1542 20.8769 11.467 20.8769 10.8004C20.8769 7.90809 15.4718 8.19013 12.7692 8.69783C13.6769 8.26193 16.0513 7.39014 18.2718 7.39014C21.0411 7.39014 22 8.09783 22 9.26706Z" fill="white"/>
<path d="M19.4616 12.0054C19.463 13.5496 19 15.0585 18.1327 16.336C17.2654 17.6136 16.0339 18.6008 14.5982 19.1692C13.1626 19.7377 11.5891 19.8614 10.0822 19.5239C8.57541 19.1865 7.2049 18.4037 6.14877 17.2772L6.18467 17.2875C7.3744 17.3799 12.0616 16.749 14.6462 12.9336C13.6206 13.503 10.9744 14.6414 8.63082 14.6414C6.53851 14.6414 5.20005 14.1593 4.19492 13.4875C3.86844 11.8441 4.08707 10.1391 4.81764 8.6313C5.5482 7.12347 6.75079 5.89519 8.24285 5.13292C9.73495 4.37065 11.4349 4.11603 13.0848 4.40771C14.7347 4.69939 16.2444 5.52143 17.3847 6.74905C17.3538 6.7352 17.3209 6.72654 17.2872 6.7234C16.1077 6.6311 11.441 7.26187 8.86671 11.0772C9.8923 10.508 12.5231 9.36956 14.8513 9.36956C16.9795 9.36956 18.3129 9.87216 19.3232 10.5594C19.4154 11.026 19.4616 11.5132 19.4616 12.0054Z" fill="white"/>
</svg>

<svg xmlns="http://www.w3.org/2000/svg" width="24" height="24" fill="none" viewBox="0 0 24 24">
    <path fill="#fff" d="M2 14.744c0-.933 1.041-2.559 1.559-3.251-.164.364-.497 1.051-.497 1.718 0 2.892 5.102 2.61 7.656 2.102-.856.436-3.097 1.308-5.195 1.308-2.615 0-3.523-.708-3.523-1.877m20-5.477c0 .934-1.102 2.559-1.651 3.251.174-.364.528-1.051.528-1.718 0-2.892-5.405-2.61-8.108-2.102.908-.436 3.282-1.308 5.503-1.308 2.77 0 3.728.708 3.728 1.877"/>
    <path fill="#fff" d="M19.462 12.005a7.697 7.697 0 0 1-13.313 5.272l.036.01c1.19.093 5.877-.538 8.461-4.353-1.025.569-3.672 1.707-6.015 1.707-2.092 0-3.431-.482-4.436-1.153a7.697 7.697 0 0 1 13.19-6.739.3.3 0 0 0-.098-.026c-1.18-.092-5.846.539-8.42 4.354 1.025-.569 3.656-1.707 5.984-1.707 2.129 0 3.462.502 4.472 1.19.092.466.139.953.139 1.445"/>
</svg>
